**kern
*clefC3
*k[f#]
*M3/4
=1-
8A
2A
16A
16A 16F#
=2
16A 16F# 16D
4B 4G 4E
4B
8B
16c
=3
4.d 4.B
(8d
8e)
8e 8c
=4
2f#
16f#
8r
16e
=5
2d
8e
8d
=6
2d
16d
8d
16c
=7
2r
16r
(16c 16A 16F#
16c 16A)
16c
=8
4d
16d
16c
4.r
=9
8d
16c
(4.d
16c)
(8d#
=10
8e)
16d
16d
4c
8d
16c
16r
=11
*-